X:1
T:Title
%%score 1 2 3
L:1/8
M:6/8
K:Bb
V:1 treble nm="Grand Piano"
V:2 treble nm="Bright Piano"
V:3 bass nm="Grand Piano"
V:1
 z3 z2[Q:1/4=100] [DF] | z6 | z6 | z6 |[M:5/8] z5 |[M:1/8] z |[M:3/4] z6 | z6 | z6 |[M:5/8] z5 | %10
[M:1/8] z |[M:3/4] z6 | z6 | z6 |[M:5/8] z5 |[M:1/8] z |[M:3/4] z6 | z6 | z6 |[M:5/8] z5 |] %20
V:2
 z6 | [DB]2 [DB] [FB]2 [Fc] | [Fd]2 [Fd] [Fd]2 [FB] | [Ec]2 [Ec] [Ec]2 [Fd] | %4
[M:5/8] [DB]2 [DB] [EG]2 |[M:1/8] [DF] |[M:3/4] [DB]2 [DB] [FB]2 [Fc] | [Fd]2 [Fd] [Fd]2 [FB] | %8
 [Ec]2 [DB] [Fd]2 [Ec] |[M:5/8] [DB]-[DB]- [DB]3 |[M:1/8] [DF] |[M:3/4] [DB]2 [DB] [FB]2 [Fc] | %12
 [Fd]2 [Fd] [Fd]2 [FB] | [Ec]2 [Ec] [Ec]2 [Fd] |[M:5/8] [DB]2 [DB] [EG]2 |[M:1/8] [DF] | %16
[M:3/4] [DB]2 [DB] [FB]2 [Fc] | [Fd]2 [Fd] [Fd]2 [FB] | [Ec]2 [DB] [Fd]2 [Ec] | %19
[M:5/8] [DB]-[DB]- [DB]3 |] %20
V:3
 z3 z2 [B,,B,] | [B,,B,]2 [B,,F,] [D,B,]2 [F,A,] | B,2 B, B,2 [D,B,] | [F,A,]2 [F,A,] [F,A,]2 F, | %4
[M:5/8] [B,,F,]2 [B,,F,] [B,,B,]2 |[M:1/8] [B,,B,] |[M:3/4] [B,,B,]2 [B,,F,] [D,B,]2 [F,A,] | %7
 B,2 B, B,2 [D,B,] | [F,A,]2 [F,B,] [F,B,]2 F, |[M:5/8] [B,,F,]-[B,,F,]- [B,,F,]3 | %10
[M:1/8] [B,,B,] |[M:3/4] [B,,B,]2 [B,,F,] [D,B,]2 [F,A,] | B,2 B, B,2 [D,B,] | %13
 [F,A,]2 [F,A,] [F,A,]2 F, |[M:5/8] [B,,F,]2 [B,,F,] [B,,B,]2 |[M:1/8] [B,,B,] | %16
[M:3/4] [B,,B,]2 [B,,F,] [D,B,]2 [F,A,] | B,2 B, B,2 [D,B,] | [F,A,]2 [F,B,] [F,B,]2 F, | %19
[M:5/8] [B,,F,]-[B,,F,]- [B,,F,]3 |] %20

